!!! OTL: Mai\,Cai\ (selling Vegetable)
!!! YEC: Copyright 2001, Chia-wei Lee
!! For Voice Only
!! [Moderato]
**kern	**silbe
*clefG2	*LXinhua
*C:	*ping-ying
*M2/4	*verse1
=8	=8
8dd	Jia-
8ee	Zhu\
16dd	Shan^
16ee	|
8dd	Xi-
=9	=9
8dd	Yong^
8ee	He/
(16dd	Shi/
8.dd)	Lou
=10	=10
8ee	Cheng/
16dd	Na\
16cc	Mo
8a	Hei-
8cc	E/
=11	=11
2dd	You-
=12	=12
8.dd	Liu/
16gg	Ja-
8dd	Zhuang-
8dd	Shang\
=13	=13
(16dd	You^
16cc)	|
8a	Ja-
4g	Men/
=14	=14
8.g	Wo^
16a	De
8cc	Ming/
8dd	Zi
=15	=15
(16dd	Giao\
16cc)	|
8a	Liu/
2cc	Cheng/
=16	=16
8ee	Ri\
(16ee	Mei^
16dd0	|
4cc	Jia-
=17	=17
8dd	Mai\
8cc	Cai\
8a	Wo^
8g	Jiu\
=18	=18
8c	Guo\
8d	Ge
8g	Guang-
(16a	|
16g)	|
=19	=19
8.e	Jing
16d	|
4c	Ai!
*-	*-
